X:1
T:M A Charpentier
T:Copyright © 1996   D G Mason    dgm@masondg.freeserve.co.uk This edition available for free download & use from http://www.cpdl.org
T:Copyright © 1996   D G Mason    dgm@masondg.freeserve.co.uk This edition available for free download &amp; use from http://www.cpdl.org
T:Copyright © 1996   D G Mason    dgm@masondg.freeserve.co.uk This edition available for free download &amp; use from http://www.cpdl.org
T:Copyright © 1996   D G Mason    dgm@masondg.freeserve.co.uk This edition available for free download &amp; use from http://www.cpdl.org
T:Copyright © 1996   D G Mason    dgm@masondg.freeserve.co.uk This edition available for free download &amp; use from http://www.cpdl.org
T:Copyright © 1996   D G Mason    dgm@masondg.freeserve.co.uk This edition available for free download &amp; use from http://www.cpdl.org
C:M A Charpentier
Z:Copyright © 1996   D G Mason    dgm@masondg.freeserve.co.uk
Z:This edition available for free download & use from http://www.cpdl.org
%%score [ ( 1 2 ) ( 3 4 ) ] { ( 5 7 ) | 6 }
L:1/8
Q:1/4=140
M:3/4
K:C
V:1 treble nm="Alto" snm=" "
V:2 treble 
V:3 bass nm="Bass" snm=" "
V:4 bass 
V:5 treble nm=" " snm=" "
V:7 treble 
V:6 bass 
V:1
 z6 | z6 | z6 | z6 | z6 | z6 | z6 | z6 |:"^A." E2 D2 C2 | D3 C B,2 | (CB,) (CD) (E^F) | G3 G D2 | %12
w: ||||||||3.~Vir go pu-|er- pe- ra|be- * a- * ta *|vi- sce- ra|
w: ||||||||1.Sal- ve- pu-|e- ru- lle,-|sal- * ve _ te- *|ne- llu- le,-|
 G2 F2 G2 | A3 A G2 | F2 E3 F | D4 z2 | A2 G2 F2 | E3 D C2 | G2 G2 ^F2 | G4 z2 | D2 E2 F2 | %21
w: de- i cum|o- pe- ra|dent fi- li-|um:|De- i- cum|o- per- ra|dent fi- li-|um.|Gau- de, flos|
w: O- na- te-|par- vu- le-|quam- bo- nus-|es:-|O- na- te-|par- vu- le-|quam- bo- nus-|es.-|Tu- cae- lum-|
 E3 D C2 | G2 A2 _B2 | A3 G F2 | A2 E2 F2 | G3 G G2 | F2 E3 F | D4 z2 | D2 E2 F2 | G3 F E2 | %30
w: vir- gi- num,|gau- de spes|ho- mi- num|fons la- vans|cri- mi- num|pro- lu- vi-|um:|fons- la- vans|cri- mi- num|
w: de- fe- ris,-|Tu- mun- do-|na- sce- ris,-|no- bis- te‘ut-|mi- ser- is-|a- ssi- mi-|les:-|no- bis- te‘ut-|mi- ser- is-|
 A2 D3 E | C6 | g4"^last time rallentando" g2 | f3 g e2 | z6 | z6 :| z6 | z6 |] %38
w: pro- lu- vi-|um.|||||||
w: a- ssi- mi-|les.-|||||||
V:2
 x6 | x6 | x6 | x6 | x6 | x6 | x6 | x6 |: C x5 | x6 | x6 | x6 | x6 | x6 | x6 | x6 | x6 | x6 | x6 | %19
 x6 | x6 | x6 | x6 | x6 | x6 | x6 | x6 | x6 | x6 | x6 | x6 | x6 | ef ed cB | A3 B c2 | x6 | x6 :| %36
 x6 | x6 |] %38
V:3
 z6 | z6 | z6 | z6 | z6 | z6 | z6 | z6 |:"^T.""^B." G,2 F,2 E,2 | G,3 G, G,2 | E,2 A,B, C2 | %11
 B,3 B, B,2 | C2 D2 C2 | C3 D B,2 | C2 C3 C | _B,4 z2 | C2 B,2 B,2 | C3 D E2 | D2 C3 C | B,4 z2 | %20
 B,2 C2 B,2 | C3 C C2 | C2 C2 E2 | C3 _B, A,2 | C2 C2 C2 | D3 D E2 | D2 D3 ^C | D4 z2 | B,2 C2 D2 | %29
 C3 D C2 | C2 C3 B, | C6 | C,4 E,2 | F,4 D,2 | z6 | z6 :| z6 | z6 |] %38
V:4
 x6 | x6 | x6 | x6 | x6 | x6 | x6 | x6 |: C,2 C,2 C,2 | B,,3 A,, G,,2 | A,,2 A,2 A,2 | G,3 G, F,2 | %12
 E,2 E,2 E,2 | F,3 F, G,2 | A,2 A,3 A, | _B,4 x2 | F,2 G,2 G,2 | C,3 C, C2 | B,2 A,3 A, | G,4 x2 | %20
 B,2 B,2 G,2 | C3 C C2 | E,2 E,2 C,2 | F,3 F, F,2 | F,2 A,2 A,2 | _B,3 A, G,2 | G,2 A,3 A,, | %27
 D,4 x2 | G,2 G,2 F,2 | E,3 E, A,2 | F,2 G,3 G,, | C,6 | x6 | x6 | x6 | x6 :| x6 | x6 |] %38
V:5
"^Con brio" [Ec]2 [EG]2 [Ec]2 | [CA]3 [B,G] [CA]2 | G2 D2 G2 | [CE]3 D C2 | G2 G3 G | G2 F4 | %6
 F2 E2 D2 | C6 |: z6 | z6 | z6 | z6 | z6 | z6 | z6 | z6 | z6 | z6 | z6 | z6 | z6 | z6 | z6 | z6 | %24
 z6 | z6 | z6 | z6 | z6 | z6 | z6 | z6 | z6 | z6 |"^&  2." dc d4 | c6 :|"^3." dc de fB | c6 |] %38
V:6
 C,4 C2 | F,4 F,2 | G,4 G,,2 | C,4 C,2 | E,4 E,2 | F,4 F,2 | G,4 G,,2 | C,3 G, A,B, |: z6 | z6 | %10
 z6 | z6 | z6 | z6 | z6 | z6 | z6 | z6 | z6 | z6 | z6 | z6 | z6 | z6 | z6 | z6 | z6 | z6 | z6 | %29
 z6 | z6 | z6 | z6 | z6 | G,4 G,,2 | C,6 :| G,4 G,,2 | C,6 |] %38
V:7
 x6 | x6 | C2 B,4 | x6 | C4 B,2 | A,2 D2 C2 | B,3 A, B,2 | x6 |: x6 | x6 | x6 | x6 | x6 | x6 | x6 | %15
 x6 | x6 | x6 | x6 | x6 | x6 | x6 | x6 | x6 | x6 | x6 | x6 | x6 | x6 | x6 | x6 | x6 | x6 | x6 | %34
 Bc BA GF | E6 :| Bc BA GF | E6 |] %38

